Sources/Octicons.swift/Resources/Media.xcassets/alert-16.imageset/alert-16.svg

<svg xmlns="http://www.w3.org/2000/svg" viewBox="0 0 16 16" width="16" height="16">  <path fill-rule="evenodd" clip-rule="evenodd" d="M8.22048 1.75358C8.1263 1.57738 7.87369 1.57738 7.77951 1.75359L1.69787 13.1321C1.60886 13.2987 1.72953 13.5 1.91835 13.5H14.0816C14.2705 13.5 14.3911 13.2987 14.3021 13.1321L8.22048 1.75358ZM6.45662 1.04652C7.11588 -0.186933 8.88412 -0.186935 9.54338 1.04652L15.625 12.4251C16.2481 13.5908 15.4034 15 14.0816 15H1.91835C0.596554 15 -0.248093 13.5908 0.374974 12.4251L6.45662 1.04652ZM9 11C9 11.5523 8.55229 12 8 12C7.44772 12 7 11.5523 7 11C7 10.4477 7.44772 10 8 10C8.55229 10 9 10.4477 9 11ZM8.75 5.75C8.75 5.33579 8.41421 5 8 5C7.58579 5 7.25 5.33579 7.25 5.75V8.25C7.25 8.66421 7.58579 9 8 9C8.41421 9 8.75 8.66421 8.75 8.25V5.75Z"></path></svg>

<svg xmlns="http://www.w3.org/2000/svg" width="16" height="16" viewBox="0 0 16 16"><path d="M6.457 1.047c.659-1.234 2.427-1.234 3.086 0l6.082 11.378A1.75 1.75 0 0 1 14.082 15H1.918a1.75 1.75 0 0 1-1.543-2.575Zm1.763.707a.25.25 0 0 0-.44 0L1.698 13.132a.25.25 0 0 0 .22.368h12.164a.25.25 0 0 0 .22-.368Zm.53 3.996v2.5a.75.75 0 0 1-1.5 0v-2.5a.75.75 0 0 1 1.5 0ZM9 11a1 1 0 1 1-2 0 1 1 0 0 1 2 0Z"/></svg>
